!!!!SEGMENT: pl-sa--228-a-vi-32--009_luna-georgius--litania-ex-d-speculum-iustitiae.krn
!!!cenid: 17xx:454
!!!COM: Luna, Georgius
!!!COM-rismid: pe41010079
!!!CDT:
!!!CNT:
!!!OPR: Litania ex D
!!!OTL: Speculum iustitiae
!!!OMV: 009
!!!PDT:
!!!AGN: Sacred; Mass
!!!SMS-siglum: PL-SA
!!!SMS-shelfmark: 228/A VI 32
!!!SMS-shelfwork: 001-009 M
!!!SMS-variant: Violino Primo: PL-SA 228/A VI 32:14
!!!SMS-altvar: Violino Imo: PL-SA 228/A VI 32:31
!!!NIFC-rismid: 1001068968
!!!URL-scan: http://bc.bdsandomierz.pl/dlibra/publication/1604/edition/1572/content
!!!ONB-nifc: UWAGA: części Litanii: Sinfonia, Kyrie, Pater de caelis, Sancta trinitas, Sancta Maria,
!!!key:
**kern	**dynam	**kern	**kern	**dynam	**kern	**kern	**text	**kern	**kern
*part7	*part7	*part6	*part5	*part5	*part4	*part3	*part3	*part2	*part1
*	*	*group3	*group3	*	*group2	*group2	*	*group1	*group1
*staff7	*	*staff6	*staff5	*	*staff4	*staff3	*staff3	*staff2	*staff1
*Iempty	*	*Ivioln	*Ivioln	*	*Itenor	*Ivox	*	*Iempty	*Iempty
*I"Fondamemto	*	*I"Violino Secundo	*I"Violino Primo	*	*I"Tenore	*I"Canto	*	*I"Clarino Socundo	*I"Clarino Primo
*I'bc	*	*I'vl 2	*I'vl 1	*	*I'T	*I'S	*	*I'clno 2 in D	*I'clno 1 in D
*clefF4	*	*clefG2	*clefG2	*	*clefC4	*clefC1	*	*clefG2	*clefG2
*	*	*	*	*	*	*	*	*ITrd-1c-2	*ITrd-1c-2
*k[f#c#g#]	*	*k[f#c#g#]	*k[f#c#g#]	*	*k[f#c#g#]	*k[f#c#g#]	*	*k[f#c#g#]	*k[f#c#g#]
*A:	*	*A:	*A:	*	*A:	*A:	*	*A:	*A:
*M4/4	*	*M4/4	*M4/4	*	*M4/4	*M4/4	*	*M4/4	*M4/4
*met(c)	*	*met(c)	*met(c)	*	*met(c)	*met(c)	*	*met(c)	*met(c)
=1	=1	=1	=1	=1	=1	=1	=1	=1	=1
!LO:TX:a:t=Solo	!	!	!	!	!	!LO:TX:a:t=P:problem:krzyżyki cc# f# g#	!	!	!
!LO:TX:a:t=Adagio	!	!LO:TX:a:t=Speculum Tacet	!LO:TX:a:t=adagio	!	!LO:TX:a:t=Speculum Tacet	!LO:TX:a:t=adagio	!	!LO:TX:a:t=Speculum Tacet	!LO:TX:a:t=Speculum Tacet
!LO:TX:a:t=P:problem:trzeci krzyżyk błędnie D#	!	!	!LO:TX:a:t=Violino Solo	!	!	!	!	!	!
8A\L	.	1ryy	[4a\	.	1ryy	00r	.	1ryy	1ryy
8A\	.	.	.	.	.	.	.	.	.
8A\	.	.	16a\LL]	.	.	.	.	.	.
.	.	.	16cc#\	.	.	.	.	.	.
8A\J	.	.	16b\	.	.	.	.	.	.
.	.	.	16a\JJ	.	.	.	.	.	.
8G#\L	.	.	[4ee\	.	.	.	.	.	.
8G#\	.	.	.	.	.	.	.	.	.
8G#\	.	.	16ee\LL]	.	.	.	.	.	.
.	.	.	16gg#\	.	.	.	.	.	.
8G#\J	.	.	16ff#\	.	.	.	.	.	.
.	.	.	16ee\JJ	.	.	.	.	.	.
=2	=2	=2	=2	=2	=2	=2	=2	=2	=2
8F#\L	.	1ryy	(32aa\KLL	.	1ryy	.	.	1ryy	1ryy
.	.	.	16.ff#\JJ)	.	.	.	.	.	.
8D\	.	.	(32dd\KLL	.	.	.	.	.	.
.	.	.	16.b\JJ)	.	.	.	.	.	.
!	!	!	!LO:TX:a:t=P:problem:mixed beam	!	!	!	!	!	!
.	.	.	8qqa/	.	.	.	.	.	.
8E\	.	.	8.g#/L	.	.	.	.	.	.
8E\J	.	.	.	.	.	.	.	.	.
.	.	.	16dd\Jk	.	.	.	.	.	.
!	!	!	!LO:TUP:a:problem:klamra łukowa, kropka zamiast numeru	!	!	!	!	!	!
8AA/L	.	.	24cc#\LL	.	.	.	.	.	.
.	.	.	24b\	.	.	.	.	.	.
.	.	.	24a\J	.	.	.	.	.	.
8AA/	.	.	8a\J	.	.	.	.	.	.
8C#/	.	.	32a\LLL	.	.	.	.	.	.
.	.	.	32b\	.	.	.	.	.	.
.	.	.	32cc#\	.	.	.	.	.	.
.	.	.	32dd\	.	.	.	.	.	.
8C#/J	.	.	32ee\	.	.	.	.	.	.
.	.	.	32ff#\	.	.	.	.	.	.
.	.	.	32gg#\	.	.	.	.	.	.
.	.	.	32aa\JJJ	.	.	.	.	.	.
=3	=3	=3	=3	=3	=3	=3	=3	=3	=3
8D\L	.	1ryy	(32ff#\KLL	.	1ryy	.	.	1ryy	1ryy
.	.	.	16.dd\JJ)	.	.	.	.	.	.
8D\	.	.	(32b\KLL	.	.	.	.	.	.
.	.	.	16.a\JJ)	.	.	.	.	.	.
!	!	!	!LO:TX:a:t=P:problem:mixed beam	!	!	!	!	!	!
.	.	.	8qqa/	.	.	.	.	.	.
8E\	.	.	8.g#/L	.	.	.	.	.	.
8E\J	.	.	.	.	.	.	.	.	.
.	.	.	16dd\Jk	.	.	.	.	.	.
!	!	!	!LO:TUP:a:problem:klamra łukowa, kropka zamiast numeru	!	!	!	!	!	!
8AA/L	.	.	24cc#\LL	.	.	.	.	.	.
.	.	.	24b\	.	.	.	.	.	.
.	.	.	24a\J	.	.	.	.	.	.
8BB/	.	.	8a\J	.	.	.	.	.	.
8C#/	.	.	8r	.	.	.	.	.	.
8AA/J	.	.	8ee\	.	.	.	.	.	.
=4	=4	=4	=4	=4	=4	=4	=4	=4	=4
*2\right	*	*	*	*	*	*	*	*	*
*tremolo	*	*	*	*	*	*	*	*	*
8D\L	.	1ryy	(16ff#\LL	.	1ryy	.	.	1ryy	1ryy
.	.	.	16gg#\J	.	.	.	.	.	.
8D\	.	.	8aa\J)	.	.	.	.	.	.
8D\	.	.	(32bb'\LLL	.	.	.	.	.	.
.	.	.	32aa'\	.	.	.	.	.	.
.	.	.	32gg#'\	.	.	.	.	.	.
.	.	.	32ff#'\	.	.	.	.	.	.
8D\J	.	.	32ee'\	.	.	.	.	.	.
.	.	.	32dd'\	.	.	.	.	.	.
.	.	.	32cc#'\JJJ)	.	.	.	.	.	.
.	.	.	(16dd\LL	.	.	.	.	.	.
8D\L	.	.	.	.	.	.	.	.	.
.	.	.	16ee\J	.	.	.	.	.	.
.	.	.	8.ff#\J)	.	.	.	.	.	.
8D\	.	.	.	.	.	.	.	.	.
8D\	.	.	.	.	.	.	.	.	.
.	.	.	(32ggn'\LLL	.	.	.	.	.	.
.	.	.	32ff#'\	.	.	.	.	.	.
.	.	.	32ee'\	.	.	.	.	.	.
8D\J	.	.	32dd'\	.	.	.	.	.	.
.	.	.	32cc#'\	.	.	.	.	.	.
.	.	.	32b'\	.	.	.	.	.	.
.	.	.	32a'\JJJ)	.	.	.	.	.	.
*Xtremolo	*	*	*	*	*	*	*	*	*
=5	=5	=5	=5	=5	=5	=5	=5	=5	=5
!	!	!	!LO:TUP:a:problem:klamra łukowa, kropka zamiast numeru	!	!	!	!	!	!
8D\L	.	1ryy	48cc#\LLL	.	1ryy	00r	.	1ryy	1ryy
.	.	.	48cc#\	.	.	.	.	.	.
.	.	.	48dd\JJJ	.	.	.	.	.	.
.	.	.	(32ff#'\LLL	.	.	.	.	.	.
.	.	.	32ee'\	.	.	.	.	.	.
8D\	.	.	32dd'\	.	.	.	.	.	.
.	.	.	32cc#'\	.	.	.	.	.	.
.	.	.	32b'\	.	.	.	.	.	.
.	.	.	32a'\	.	.	.	.	.	.
8E\	.	.	32g#'\	.	.	.	.	.	.
.	.	.	32f#'\JJJ)	.	.	.	.	.	.
!	!	!	!LO:TX:a:t=P:problem:mixed beam	!	!	!	!	!	!
!	!	!	!LO:N:vis=8.	!	!	!	!	!	!
.	.	.	8e/L	.	.	.	.	.	.
8E\J	.	.	.	.	.	.	.	.	.
.	.	.	16dd\Jk	.	.	.	.	.	.
!	!	!	!LO:LB:g=original	!	!	!	!	!	!
.	.	.	8qqdd/	.	.	.	.	.	.
8AA/L	.	.	16cc#\LL	.	.	.	.	.	.
.	.	.	16b\J	.	.	.	.	.	.
.	.	.	8qqb/	.	.	.	.	.	.
8BB/	.	.	8a\J	.	.	.	.	.	.
8C#/	.	.	8r	.	.	.	.	.	.
8AA/J	.	.	8ee\	.	.	.	.	.	.
=6	=6	=6	=6	=6	=6	=6	=6	=6	=6
8D/L	.	1ryy	16.ff#\LL	.	1ryy	.	.	1ryy	1ryy
.	.	.	32dd\JK	.	.	.	.	.	.
8BB/	.	.	8ddT\J	.	.	.	.	.	.
!	!	!	!LO:N:vis=32.	!	!	!	!	!	!
8C#/	.	.	16.ee\LL	.	.	.	.	.	.
!	!	!	!LO:N:vis=16	!	!	!	!	!	!
.	.	.	32cc#\JK	.	.	.	.	.	.
8AA/J	.	.	8cc#t\J	.	.	.	.	.	.
!LO:TX:a:t=P:problem:mixed beam	!	!	!	!	!	!	!	!	!
8BB/L	.	.	16.dd\LL	.	.	.	.	.	.
.	.	.	32b\JK	.	.	.	.	.	.
8GG#/	.	.	8bT\J	.	.	.	.	.	.
8AA/	.	.	16.cc#\LL	.	.	.	.	.	.
.	.	.	32a\JK	.	.	.	.	.	.
8A\J	.	.	8aT\J	.	.	.	.	.	.
=7	=7	=7	=7	=7	=7	=7	=7	=7	=7
8D\L	.	1ryy	16r	.	1ryy	.	.	1ryy	1ryy
.	.	.	16a/	.	.	.	.	.	.
!	!	!	!LO:TUP:a:problem:klamra łukowa, kropka zamiast numeru	!	!	!	!	!	!
8D\	.	.	24ff#\LL	.	.	.	.	.	.
.	.	.	24dd\	.	.	.	.	.	.
.	.	.	24b\JJ	.	.	.	.	.	.
8D\	.	.	8f#/L	.	.	.	.	.	.
.	.	.	8qqa/	.	.	.	.	.	.
8D\J	.	.	8g#/J	.	.	.	.	.	.
8AA/L	.	.	16r	.	.	.	.	.	.
.	.	.	16qqb/	.	.	.	.	.	.
.	.	.	(16a/LL	.	.	.	.	.	.
8C#/	.	.	16g#/	.	.	.	.	.	.
.	.	.	16a/JJ)	.	.	.	.	.	.
8D/	.	.	16r	.	.	.	.	.	.
.	.	.	16qqb/	.	.	.	.	.	.
.	.	.	(16a/LL	.	.	.	.	.	.
8D/J	.	.	16g#/	.	.	.	.	.	.
.	.	.	16a/JJ)	.	.	.	.	.	.
=8	=8	=8	=8	=8	=8	=8	=8	=8	=8
8C#\L	.	1ryy	16r	.	1ryy	.	.	1ryy	1ryy
.	.	.	16a/	.	.	.	.	.	.
!	!	!	!LO:TUP:a:problem:klamra łukowa, kropka zamiast numeru	!	!	!	!	!	!
8D\	.	.	24ff#\LL	.	.	.	.	.	.
.	.	.	24dd\	.	.	.	.	.	.
.	.	.	24b\JJ	.	.	.	.	.	.
8D\	.	.	8f#/L	.	.	.	.	.	.
.	.	.	8qqa/	.	.	.	.	.	.
8E\J	.	.	8g#/J	.	.	.	.	.	.
8C#/L	p	.	16r	.	.	.	.	.	.
.	.	.	16qqb/	p	.	.	.	.	.
.	.	.	(16a/LL	.	.	.	.	.	.
8C#/	.	.	16g#/	.	.	.	.	.	.
.	.	.	16a/JJ)	.	.	.	.	.	.
8D/	.	.	16r	.	.	.	.	.	.
.	.	.	16qqb/	.	.	.	.	.	.
.	.	.	(16a/LL	.	.	.	.	.	.
8D/J	.	.	16g#/	.	.	.	.	.	.
.	.	.	16a/JJ)	.	.	.	.	.	.
!LO:LB:g=original	!	!	!	!	!	!	!	!	!
=9	=9	=9	=9	=9	=9	=9	=9	=9	=9
8C#/L	.	1ryy	16r	.	1ryy	1r	.	1ryy	1ryy
.	.	.	16a/	.	.	.	.	.	.
!	!	!	!LO:TUP:a:problem:klamra łukowa, kropka zamiast numeru	!	!	!	!	!	!
8D/	.	.	24ff#\LL	.	.	.	.	.	.
.	.	.	24dd\	.	.	.	.	.	.
.	.	.	24b\JJ	.	.	.	.	.	.
8D/	.	.	8f#/L	.	.	.	.	.	.
.	.	.	8qqa/	.	.	.	.	.	.
8E/J	.	.	8g#/J	.	.	.	.	.	.
!	!	!	!	!LO:DY:t=for	!	!	!	!	!
8AA/L	.	.	8a/L	f	.	.	.	.	.
8AA/J	.	.	16e/L	.	.	.	.	.	.
.	.	.	16c#/JJ	.	.	.	.	.	.
4AA;/	.	.	4A;/	.	.	.	.	.	.
!	!	!	!LO:LB:g=original	!	!	!	!	!	!
=10	=10	=10	=10	=10	=10	=10	=10	=10	=10
*tremolo	*	*	*	*	*	*	*	*	*
!	!	!	!LO:TX:a:t=P:problem:mixed beam	!LO:DY:rj:t=p	!	!	!	!	!
8A\L	p	1ryy	8aa\L	p	1ryy	4a\	Spe-	1ryy	1ryy
8A\	.	.	8a/J	.	.	.	.	.	.
8A\	.	.	4r	.	.	(16a\LL	.	.	.
.	.	.	.	.	.	16cc#\JJ)	.	.	.
8A\J	.	.	.	.	.	(16b\LL	-cu-	.	.
.	.	.	.	.	.	16a\JJ)	.	.	.
!	!	!	!LO:TX:a:t=P:problem:mixed beam	!	!	!	!	!	!
.	.	.	8qqdd#X/	.	.	.	.	.	.
8A\L	.	.	8ee\L	.	.	4ee\	-lum	.	.
8A\	.	.	8e/J	.	.	.	.	.	.
8A\	.	.	4r	.	.	4ee\	spe-	.	.
8A\J	.	.	.	.	.	.	.	.	.
*Xtremolo	*	*	*	*	*	*	*	*	*
=11	=11	=11	=11	=11	=11	=11	=11	=11	=11
8D\L	.	1ryy	8r	.	1ryy	(32ff#\KLL	.	1ryy	1ryy
.	.	.	.	.	.	16.dd\JJ)	.	.	.
8D\	.	.	8bb\L	.	.	(32b\KLL	-cu-	.	.
.	.	.	.	.	.	16.a\JJ)	.	.	.
8E\	.	.	8bb\	.	.	8g#\	-lum	.	.
8E\J	.	.	8bb\J	.	.	8dd\	jus-	.	.
!	!	!	!	!	!	!LO:LB:g=original	!	!	!
8AA/L	.	.	16.aa\LL	.	.	16cc#\	-ti-	.	.
.	.	.	.	.	.	16b\	-ti-	.	.
.	.	.	32gg#\JJk	.	.	.	.	.	.
!	!	!	!LO:TX:a:t=P:problem:mixed beam	!	!	!	!	!	!
8AA/	.	.	16.aa\LL	.	.	8a\	-e	.	.
.	.	.	32g#/JJk	.	.	.	.	.	.
!	!	!	!LO:TX:a:t=P:problem:mixed beam	!	!	!	!	!	!
8C#/	.	.	8a/L	.	.	4ee\	se-	.	.
8C#/J	.	.	8aa\J	.	.	.	.	.	.
=12	=12	=12	=12	=12	=12	=12	=12	=12	=12
8D\L	.	1ryy	8r	.	1ryy	(32ff#\KLL	.	1ryy	1ryy
.	.	.	.	.	.	16.dd\JJ)	.	.	.
8D\	.	.	8bb\L	.	.	(32b\KLL	-des	.	.
.	.	.	.	.	.	16.a\JJ)	.	.	.
8E\	.	.	8bb\	.	.	8g#\	sa-	.	.
8E\J	.	.	8bb\J	.	.	8dd\	-pi-	.	.
8AA/L	.	.	16.aa\LL	.	.	16cc#\	-en-	.	.
.	.	.	.	.	.	16b\	-ti-	.	.
.	.	.	32gg#\JJk	.	.	.	.	.	.
!	!	!	!LO:TX:a:t=P:problem:mixed beam	!	!	!	!	!	!
8AA/	.	.	16.aa\LL	.	.	8a\	-e	.	.
.	.	.	32g#/JJk	.	.	.	.	.	.
!	!	!	!LO:TX:a:t=P:problem:mixed beam	!	!	!	!	!	!
8C#/	.	.	8a/L	.	.	8r	.	.	.
8C#/J	.	.	8ee\J	.	.	8ee\	o-	.	.
=13	=13	=13	=13	=13	=13	=13	=13	=13	=13
*tremolo	*	*	*	*	*	*	*	*	*
8D\L	.	1ryy	16ff#\LL	.	1ryy	4ff#\	.	1ryy	1ryy
.	.	.	16gg#\J	.	.	.	.	.	.
8D\	.	.	[8aa\J	.	.	.	.	.	.
8D\	.	.	32aa\LLL]	.	.	16ff#\LL	.	.	.
.	.	.	(32bb\	.	.	.	.	.	.
.	.	.	(32aa'\)	.	.	16ee\	.	.	.
.	.	.	32gg#'\	.	.	.	.	.	.
8D\J	.	.	32ff#'\	.	.	16dd\	.	.	.
.	.	.	32ee'\	.	.	.	.	.	.
.	.	.	32dd'\	.	.	16cc#\JJ	.	.	.
.	.	.	32cc#'\JJJ)	.	.	.	.	.	.
8D\L	.	.	16dd\LL	.	.	4dd\	.	.	.
.	.	.	16ee\J	.	.	.	.	.	.
8D\	.	.	[8ff#\J	.	.	.	.	.	.
8D\	.	.	32ff#\LLL]	.	.	16dd\LL	.	.	.
.	.	.	(32gg#'\	.	.	.	.	.	.
.	.	.	32ff#'\	.	.	16cc#\	.	.	.
.	.	.	32ee'\	.	.	.	.	.	.
8D\J	.	.	32dd'\	.	.	16b\	.	.	.
.	.	.	32cc#'\	.	.	.	.	.	.
.	.	.	32b'\	.	.	16a\JJ	.	.	.
.	.	.	32a'\JJJ)	.	.	.	.	.	.
=14	=14	=14	=14	=14	=14	=14	=14	=14	=14
8E\L	.	1ryy	16b\LL	.	1ryy	4g#\	-ra	1ryy	1ryy
.	.	.	16cc#\J	.	.	.	.	.	.
8E\	.	.	8dd\J	.	.	.	.	.	.
8E\	.	.	(32bb'\LLL	.	.	4dd\	pro	.	.
.	.	.	32aa'\	.	.	.	.	.	.
.	.	.	32gg#'\	.	.	.	.	.	.
.	.	.	32ff#'\	.	.	.	.	.	.
8E\J	.	.	32ee'\	.	.	.	.	.	.
.	.	.	32dd'\	.	.	.	.	.	.
.	.	.	32cc#'\	.	.	.	.	.	.
.	.	.	32b'\JJJ)	.	.	.	.	.	.
8AA/L	.	.	32cc#\LLL	.	.	16cc#\LL	no-	.	.
.	.	.	32a\	.	.	.	.	.	.
.	.	.	32b\	.	.	16b\JJ	.	.	.
.	.	.	32cc#\	.	.	.	.	.	.
8AA/	.	.	32dd\	.	.	8a\	-bis	.	.
.	.	.	32ee\	.	.	.	.	.	.
.	.	.	32ff#\	.	.	.	.	.	.
.	.	.	32gg#\JJJ	.	.	.	.	.	.
8AA/	.	.	4aa\	.	.	4r	.	.	.
8AA/J	.	.	.	.	.	.	.	.	.
=15	=15	=15	=15	=15	=15	=15	=15	=15	=15
8A\L	.	1ryy	16r	.	1ryy	8.cc#\L	Cau-	1ryy	1ryy
.	.	.	(16cc#\LL	.	.	.	.	.	.
8A\	.	.	16aa\	.	.	.	.	.	.
.	.	.	16gg#\JJ)	.	.	16a\Jk	.	.	.
8A\	.	.	4aa\	.	.	4aa\	-sa	.	.
8A\J	.	.	.	.	.	.	.	.	.
!	!	!	!LO:LB:g=original	!	!	!	!	!	!
8E\L	.	.	16r	.	.	8.b\L	no-	.	.
.	.	.	(16b\LL	.	.	.	.	.	.
8E\	.	.	16gg#\	.	.	.	.	.	.
.	.	.	16ff#\JJ)	.	.	16g#\Jk	.	.	.
8E\	.	.	4gg#\	.	.	4gg#\	-stre	.	.
8E\J	.	.	.	.	.	.	.	.	.
!	!	!	!	!	!	!LO:LB:g=original	!	!	!
=16	=16	=16	=16	=16	=16	=16	=16	=16	=16
8BB/L	.	1ryy	16r	.	1ryy	16a\LL	le-	1ryy	1ryy
.	.	.	(16a\LL	.	.	16ff#\JJ	.	.	.
8BB/	.	.	16ff#\	.	.	4ff#\	-ti-	.	.
.	.	.	16ee\JJ)	.	.	.	.	.	.
8BB/	.	.	8ff#\L	.	.	.	.	.	.
8BB/J	.	.	8ff#\J	.	.	8a\	-ti-	.	.
8E\L	.	.	16ee\LL	.	.	4g#\	-e	.	.
.	.	.	16bb\	.	.	.	.	.	.
8E\	.	.	16dd#X\	.	.	.	.	.	.
.	.	.	16ff#\JJ	.	.	.	.	.	.
8E\	.	.	4ee\	.	.	8r	.	.	.
8E\J	.	.	.	.	.	8b\	o-	.	.
*Xtremolo	*	*	*	*	*	*	*	*	*
=17	=17	=17	=17	=17	=17	=17	=17	=17	=17
8r	.	1ryy	8r	.	1ryy	4gg#\	-ra	1ryy	1ryy
8E\L	.	.	8bb\	.	.	.	.	.	.
8A\	.	.	(16aa\LL	.	.	16ff#\LL	pro	.	.
.	.	.	16gg#\	.	.	16ee\	.	.	.
!	!	!	!	!	!	!LO:TX:a:t=P:problem:# na górze	!	!	!
8B\J	.	.	16ff#\	.	.	16dd#X\	.	.	.
.	.	.	16aa\JJ)	.	.	16ff#\JJ	.	.	.
8E\L	.	.	4gg#\	.	.	16ee\LL	no-	.	.
.	.	.	.	.	.	16cc#\JJ	.	.	.
8E\	.	.	.	.	.	4b\	-bis	.	.
8D#X\	.	.	4r	.	.	.	.	.	.
!LO:TX:a:t=P:problem:wykreślony takt	!	!	!	!	!	!	!	!	!
8BB\J	.	.	.	.	.	8b\	o-	.	.
!LO:LB:g=original	!	!	!	!	!	!	!	!	!
=18	=18	=18	=18	=18	=18	=18	=18	=18	=18
8r	.	1ryy	8r	.	1ryy	4gg#\	-ra	1ryy	1ryy
8E\L	.	.	8bb\	.	.	.	.	.	.
8A\	.	.	(16aa\LL	.	.	16ff#\LL	pro	.	.
.	.	.	16gg#\)	.	.	16ee\	.	.	.
8B\J	.	.	(16ff#\	.	.	16dd#X\	.	.	.
.	.	.	16aa\JJ)	.	.	16ff#\JJ	.	.	.
8E\L	.	.	4gg#\	.	.	16ee\LL	no-	.	.
.	.	.	.	.	.	16cc#\	.	.	.
8E\	.	.	.	.	.	16b\	.	.	.
.	.	.	.	.	.	16a\JJ	.	.	.
!	!	!	!	!	!	!LO:TX:a:t=P:problem:mixed beam	!	!	!
8D#X\	.	.	4r	.	.	16g#/LL	.	.	.
.	.	.	.	.	.	16aa\	.	.	.
8BB\J	.	.	.	.	.	16gg#\	.	.	.
.	.	.	.	.	.	16ff#\JJ	.	.	.
=19	=19	=19	=19	=19	=19	=19	=19	=19	=19
8r	.	1ryy	2r	.	1ryy	4ee\	.	1ryy	1ryy
8E\L	.	.	.	.	.	.	.	.	.
8A\	.	.	.	.	.	4ff#T\	.	.	.
8B\J	.	.	.	.	.	.	.	.	.
!	!	!	!	!LO:DY:t=f&colon;	!	!	!	!	!
8E\L	.	.	[4e/	f	.	4ee\	-bis	.	.
8E\	.	.	.	.	.	.	.	.	.
8E\	.	.	16e/LL]	.	.	4r	.	.	.
.	.	.	(16g#/	.	.	.	.	.	.
8A\J	.	.	16f#/	.	.	.	.	.	.
.	.	.	16e/JJ)	.	.	.	.	.	.
=20	=20	=20	=20	=20	=20	=20	=20	=20	=20
4B\	.	1ryy	[4b\	.	1ryy	00r	.	1ryy	1ryy
4BB/	.	.	16b\LL]	.	.	.	.	.	.
.	.	.	(16dd#X\	.	.	.	.	.	.
.	.	.	16cc#\	.	.	.	.	.	.
.	.	.	16b\JJ)	.	.	.	.	.	.
*tremolo	*	*	*	*	*	*	*	*	*
!	!LO:DY:t=for	!	!	!	!	!	!	!	!
8E\L	f	.	(32ee\KLL	.	.	.	.	.	.
.	.	.	16.cc#\JJ)	.	.	.	.	.	.
8E\	.	.	(32a\KLL	.	.	.	.	.	.
.	.	.	16.f#\JJ)	.	.	.	.	.	.
!	!	!	!LO:TX:a:t=P:problem:mixed beam	!	!	!	!	!	!
.	.	.	8qqe/	.	.	.	.	.	.
8E\	.	.	8.d#X/L	.	.	.	.	.	.
8E\J	.	.	.	.	.	.	.	.	.
.	.	.	16aa\Jk	.	.	.	.	.	.
=21	=21	=21	=21	=21	=21	=21	=21	=21	=21
!	!	!	!LO:TUP:a:problem:klamra łukowa, kropka zamiast numeru	!	!	!	!	!	!
8D#X\L	.	1ryy	24gg#\LL	.	1ryy	.	.	1ryy	1ryy
.	.	.	24ff#\	.	.	.	.	.	.
.	.	.	24ee\J	.	.	.	.	.	.
8D#X\	.	.	8ee\J	.	.	.	.	.	.
8D#X\	.	.	(32e/LLL	.	.	.	.	.	.
.	.	.	32f#/	.	.	.	.	.	.
.	.	.	32g#/	.	.	.	.	.	.
.	.	.	32a/	.	.	.	.	.	.
8D#X\J	.	.	32b/	.	.	.	.	.	.
.	.	.	32cc#/	.	.	.	.	.	.
.	.	.	32dd#X/	.	.	.	.	.	.
.	.	.	32ee/JJJ)	.	.	.	.	.	.
*Xtremolo	*	*	*	*	*	*	*	*	*
!	!	!	!LO:LB:g=original	!	!	!	!	!	!
8C#/L	.	.	(32cc#\KLL	.	.	.	.	.	.
.	.	.	16.a\JJ)	.	.	.	.	.	.
8AA/	.	.	(32f#/KLL	.	.	.	.	.	.
.	.	.	16.e/JJ)	.	.	.	.	.	.
!	!	!	!LO:TX:a:t=P:problem:mixed beam	!	!	!	!	!	!
.	.	.	8qqe/	.	.	.	.	.	.
8BB/	.	.	8.d#X/L	.	.	.	.	.	.
8BB/J	.	.	.	.	.	.	.	.	.
.	.	.	16aa\Jk	.	.	.	.	.	.
=22	=22	=22	=22	=22	=22	=22	=22	=22	=22
!	!	!	!LO:TUP:a:problem:klamra łukowa, kropka zamiast numeru	!	!	!	!	!	!
8E\L	.	1ryy	24gg#\LL	.	1ryy	.	.	1ryy	1ryy
.	.	.	24ff#\	.	.	.	.	.	.
.	.	.	24ee\J	.	.	.	.	.	.
8E\	.	.	8ee\J	.	.	.	.	.	.
8G#\	.	.	8r	.	.	.	.	.	.
8G#\J	.	.	8bT\	.	.	.	.	.	.
8A\L	.	.	16r	.	.	.	.	.	.
.	.	.	16qqff#/	.	.	.	.	.	.
.	.	.	(16ee\LL	.	.	.	.	.	.
8A\	.	.	16dd#X\	.	.	.	.	.	.
.	.	.	16ee\JJ)	.	.	.	.	.	.
8B\	.	.	16r	.	.	.	.	.	.
.	.	.	16qqff#/	.	.	.	.	.	.
.	.	.	(16ee\LL	.	.	.	.	.	.
8B\J	.	.	16dd#X\	.	.	.	.	.	.
.	.	.	16ee\JJ)	.	.	.	.	.	.
=23	=23	=23	=23	=23	=23	=23	=23	=23	=23
!LO:TX:a:t=P:problem:nadliczbowy takt	!	!	!LO:TX:a:t=P:problem:nadliczbowy takt w Fundamento	!	!	!	!	!	!
8E\L	.	1ryy	1ryy	.	1ryy	.	.	1ryy	1ryy
8E\	.	.	.	.	.	.	.	.	.
8G#\	.	.	.	.	.	.	.	.	.
8E\J	.	.	.	.	.	.	.	.	.
8G#\L	.	.	.	.	.	.	.	.	.
8G#\	.	.	.	.	.	.	.	.	.
8A\	.	.	.	.	.	.	.	.	.
8A\J	.	.	.	.	.	.	.	.	.
=24	=24	=24	=24	=24	=24	=24	=24	=24	=24
!	!	!	!	!	!	!LO:TX:a:t=P:problem:nadliczbowy takt w Fundamento (zamiast t.23)	!	!	!
8G#\L	.	1ryy	16r	.	1ryy	1ryy	.	1ryy	1ryy
.	.	.	16ee\	.	.	.	.	.	.
!	!	!	!LO:TUP:a:problem:klamra łukowa, kropka zamiast numeru	!	!	!	!	!	!
8G#\	.	.	24ccc#\LL	.	.	.	.	.	.
.	.	.	24aa\	.	.	.	.	.	.
.	.	.	24ff#\JJ	.	.	.	.	.	.
8A\	.	.	8cc#\L	.	.	.	.	.	.
.	.	.	8qqee/	.	.	.	.	.	.
8B\J	.	.	8dd#X\J	.	.	.	.	.	.
8G#\L	p	.	16r	p	.	.	.	.	.
.	.	.	16qqff#/	.	.	.	.	.	.
.	.	.	16ee\LL	.	.	.	.	.	.
8G#\	.	.	16dd#X\	.	.	.	.	.	.
.	.	.	16ee\JJ	.	.	.	.	.	.
8A\	.	.	16r	.	.	.	.	.	.
.	.	.	16qqff#/	.	.	.	.	.	.
.	.	.	(16ee\LL	.	.	.	.	.	.
8A\J	.	.	16dd#X\	.	.	.	.	.	.
.	.	.	16ee\JJ)	.	.	.	.	.	.
=25	=25	=25	=25	=25	=25	=25	=25	=25	=25
8G#\L	.	1ryy	16r	.	1ryy	1r	.	1ryy	1ryy
.	.	.	16ee\	.	.	.	.	.	.
*	*	*	*Xtuplet	*	*	*	*	*	*
8A\	.	.	24ccc#\LL	.	.	.	.	.	.
.	.	.	24aa\	.	.	.	.	.	.
.	.	.	24ff#\JJ	.	.	.	.	.	.
8A\	.	.	8cc#\L	.	.	.	.	.	.
.	.	.	8qqee/	.	.	.	.	.	.
8B\J	.	.	8dd#X\J	.	.	.	.	.	.
!	!	!	!	!LO:DY:t=f	!	!	!	!	!
8E\L	.	.	8ee\L	f	.	.	.	.	.
8E\J	.	.	16b\L	.	.	.	.	.	.
.	.	.	16g#\JJ	.	.	.	.	.	.
!	!LO:DY:t=for	!	!	!	!	!	!	!	!
4E\	f	.	4e/	.	.	.	.	.	.
=26	=26	=26	=26	=26	=26	=26	=26	=26	=26
*tremolo	*	*	*	*	*	*	*	*	*
!	!	!	!LO:TX:a:t=P:problem:mixed beam	!	!	!	!	!	!
8E\L	.	1ryy	8ee\L	p	1ryy	4e/	Vas	1ryy	1ryy
8E\	.	.	8e/J	.	.	.	.	.	.
8E\	.	.	4r	.	.	(16e/LL	.	.	.
.	.	.	.	.	.	16g#/JJ)	.	.	.
8E\J	.	.	.	.	.	(16f#/LL	spi-	.	.
.	.	.	.	.	.	16e/JJ)	.	.	.
!	!	!	!LO:TX:a:t=P:problem:mixed beam	!	!	!	!	!	!
.	.	.	16qqaa#X/	.	.	.	.	.	.
8D#X\L	.	.	8bb\L	.	.	4b\	-ri-	.	.
8D#X\	.	.	8b/J	.	.	.	.	.	.
8D#X\	.	.	4r	.	.	16b\LL	-tu-	.	.
.	.	.	.	.	.	16dd#X\	.	.	.
8D#X\J	.	.	.	.	.	16cc#\	.	.	.
.	.	.	.	.	.	16b\JJ	.	.	.
*Xtremolo	*	*	*	*	*	*	*	*	*
!LO:PB:g=original	!	!	!LO:LB:g=original	!	!	!	!	!	!
=27	=27	=27	=27	=27	=27	=27	=27	=27	=27
8C#/L	.	1ryy	8r	.	1ryy	16ee\LL	-a-	1ryy	1ryy
.	.	.	.	.	.	16cc#\	.	.	.
8AA/	.	.	8ff#\L	.	.	16a\	.	.	.
.	.	.	.	.	.	16f#\JJ	.	.	.
!	!	!	!	!	!	!LO:TX:a:t=P:problem:mixed beam	!	!	!
.	.	.	.	.	.	8qqe/	.	.	.
8BB/	.	.	8ff#\	.	.	8d#X/L	.	.	.
8BB/J	.	.	8ff#\J	.	.	8a\J	.	.	.
!	!	!	!	!	!	!LO:LB:g=original	!	!	!
8E\L	.	.	16.ee\LL	.	.	16g#/LL	.	.	.
.	.	.	.	.	.	16f#/JJ	.	.	.
.	.	.	32dd#X\JJk	.	.	.	.	.	.
!	!	!	!LO:TX:a:t=P:problem:mixed beam	!	!	!	!	!	!
8E\	.	.	16.ee\LL	.	.	8e/	-le	.	.
.	.	.	32d#X/JJk	.	.	.	.	.	.
!	!	!	!LO:TX:a:t=P:problem:mixed beam	!	!	!	!	!	!
8G#\	.	.	8e/L	.	.	4ee\	vas	.	.
8G#\J	.	.	8ee\J	.	.	.	.	.	.
=28	=28	=28	=28	=28	=28	=28	=28	=28	=28
8A\L	.	1ryy	8r	.	1ryy	16ee\LL	ho-	1ryy	1ryy
.	.	.	.	.	.	16cc#\	.	.	.
8A\	.	.	8ff#\L	.	.	16a\	.	.	.
.	.	.	.	.	.	16f#\JJ	.	.	.
.	.	.	.	.	.	8qqe/	.	.	.
8B\	.	.	8ff#\	.	.	8d#X/	.	.	.
8B\J	.	.	8ff#\J	.	.	8a\	-no-	.	.
8E\L	.	.	16r	.	.	16g#/	-ra-	.	.
.	.	.	16qqff#/	.	.	.	.	.	.
.	.	.	(16ee\LL	.	.	16f#/	-bi-	.	.
8E\	.	.	16dd#X\	.	.	8e/	-lis	.	.
.	.	.	16ee\JJ)	.	.	.	.	.	.
8G#\	.	.	16r	.	.	4r	.	.	.
.	.	.	8qqff#/	.	.	.	.	.	.
.	.	.	(16ee\LL	.	.	.	.	.	.
8E\J	.	.	16dd#X\	.	.	.	.	.	.
.	.	.	16ee\JJ)	.	.	.	.	.	.
=29	=29	=29	=29	=29	=29	=29	=29	=29	=29
*tremolo	*	*	*	*	*	*	*	*	*
8E\L	.	1ryy	8b\L	.	1ryy	4b\	Vas	1ryy	1ryy
8E\	.	.	8b\	.	.	.	.	.	.
8E\	.	.	8b\	.	.	4gg#\	in	.	.
8E\J	.	.	8b\J	.	.	.	.	.	.
8BB/L	.	.	16r	.	.	16ff#\LL	Sig-	.	.
.	.	.	16qqaa#X/	.	.	.	.	.	.
.	.	.	(16bb\LL	.	.	16dd#X\JJ	.	.	.
8BB/	.	.	16aa#\	.	.	8b\	-ne	.	.
.	.	.	16bb\JJ)	.	.	.	.	.	.
8BB/	.	.	16r	.	.	8r	.	.	.
.	.	.	8qqaa#/	.	.	.	.	.	.
.	.	.	(16bb\LL	.	.	.	.	.	.
8BB/J	.	.	16aa#\	.	.	8ff#\	de-	.	.
.	.	.	16bb\JJ)	.	.	.	.	.	.
=30	=30	=30	=30	=30	=30	=30	=30	=30	=30
8F#\L	.	1ryy	8cc#\L	.	1ryy	4ee\	-vo-	1ryy	1ryy
8F#\	.	.	8cc#\	.	.	.	.	.	.
8F#\	.	.	8cc#\	.	.	4ee\	-ti-	.	.
8F#\J	.	.	8cc#\J	.	.	.	.	.	.
8BB/L	.	.	16r	.	.	8ee\	-o-	.	.
.	.	.	8qqaa#X/	.	.	.	.	.	.
.	.	.	(16bb\LL	.	.	.	.	.	.
8BB/	.	.	16aa#\	.	.	8dd#X\	-nis	.	.
.	.	.	16bb\JJ)	.	.	.	.	.	.
8BB/	.	.	16r	.	.	4r	.	.	.
.	.	.	8qqaa#X/	.	.	.	.	.	.
.	.	.	(16bb\LL	.	.	.	.	.	.
8BB/J	.	.	16aa#\	.	.	.	.	.	.
.	.	.	16bb\JJ)	.	.	.	.	.	.
=31	=31	=31	=31	=31	=31	=31	=31	=31	=31
!LO:TX:a:t=P:problem:mixed beam	!	!	!	!	!	!	!	!	!
8AA/L	.	1ryy	8r	.	1ryy	4e/	Vas	1ryy	1ryy
8A\	.	.	8ee\L	.	.	.	.	.	.
8A\	.	.	8ee\	.	.	4cc#\	in	.	.
8A\J	.	.	8ee\J	.	.	.	.	.	.
8E\L	.	.	16r	.	.	16b\LL	Sig-	.	.
.	.	.	16qqff#/	.	.	.	.	.	.
.	.	.	(16ee\LL	.	.	16a\JJ	.	.	.
8E\	.	.	16dd#X\	.	.	8g#\	-ne	.	.
.	.	.	16ee\JJ)	.	.	.	.	.	.
8E\	.	.	16r	.	.	8r	.	.	.
.	.	.	16qqff#/	.	.	.	.	.	.
.	.	.	(16ee\LL	.	.	.	.	.	.
8E\J	.	.	16dd#X\	.	.	8b\	de-	.	.
.	.	.	16ee\JJ)	.	.	.	.	.	.
!	!	!	!LO:LB:g=original	!	!	!	!	!	!
=32	=32	=32	=32	=32	=32	=32	=32	=32	=32
8BB/L	.	1ryy	8r	.	1ryy	4a\	-vo-	1ryy	1ryy
8BB/	.	.	8ff#\L	.	.	.	.	.	.
8BB/	.	.	8ff#\	.	.	4a\	-ti-	.	.
8BB/J	.	.	8ff#\J	.	.	.	.	.	.
8E\L	.	.	16r	.	.	8a\	-o-	.	.
.	.	.	16qqff#/	.	.	.	.	.	.
.	.	.	(16ee\LL	.	.	.	.	.	.
8E\	.	.	16dd#X\	.	.	8g#\	-nis	.	.
.	.	.	16ee\JJ)	.	.	.	.	.	.
8E\	.	.	16r	.	.	4r	.	.	.
.	.	.	(16ee\LL	.	.	.	.	.	.
8E\J	.	.	16dd#X\	.	.	.	.	.	.
.	.	.	16ee\JJ)	.	.	.	.	.	.
=33	=33	=33	=33	=33	=33	=33	=33	=33	=33
8E\L	.	1ryy	4r	.	1ryy	4e/	o-	1ryy	1ryy
8E\	.	.	.	.	.	.	.	.	.
8E\	.	.	4bb\	.	.	4dd\	-ra	.	.
8E\J	.	.	.	.	.	.	.	.	.
!	!	!	!	!	!	!LO:LB:g=original	!	!	!
8AA/L	.	.	4bb\	.	.	4dd\	o-	.	.
8AA/	.	.	.	.	.	.	.	.	.
!	!	!	!LO:N:vis=4	!	!	!	!	!	!
8AA/	.	.	8aa\	.	.	4cc#\	-ra	.	.
!	!	!	!LO:N:vis=4	!	!	!	!	!	!
8AA/J	.	.	8r	.	.	.	.	.	.
=34	=34	=34	=34	=34	=34	=34	=34	=34	=34
8AA/L	.	1ryy	4r	.	1ryy	4a\	o-	1ryy	1ryy
8AA/	.	.	.	.	.	.	.	.	.
8AA/	.	.	4ee\	.	.	4gg#\	-ra	.	.
8AA/J	.	.	.	.	.	.	.	.	.
*Xtremolo	*	*	*	*	*	*	*	*	*
4D\	.	.	8dd\L	.	.	8ff#\L	o-	.	.
.	.	.	8b\	.	.	8gg#X\J	.	.	.
8r	.	.	8cc#\	.	.	8aa\	-ra	.	.
8D\	.	.	8b\J	.	.	8dd\	pro	.	.
=35	=35	=35	=35	=35	=35	=35	=35	=35	=35
4E\	.	1ryy	4a/	.	1ryy	4cc#\	no-	1ryy	1ryy
4E\	.	.	4g#/	.	.	4b\	.	.	.
4D#X;\	.	.	4a;/	.	.	4cc#;\	-bis	.	.
4r	.	.	4r	.	.	4r	.	.	.
=36	=36	=36	=36	=36	=36	=36	=36	=36	=36
8Dn\L	.	1ryy	0r	.	1ryy	8b\L	o-	1ryy	1ryy
8D\	.	.	.	.	.	16ff#\L	.	.	.
.	.	.	.	.	.	16ee\JJ	.	.	.
8D\	.	.	.	.	.	16dd\LL	ra	.	.
.	.	.	.	.	.	16cc#\JJ	.	.	.
8D\J	.	.	.	.	.	16b\LL	pro	.	.
.	.	.	.	.	.	16a\JJ	.	.	.
!	!	!	!	!	!	!LO:TX:a:t=P:problem:mixed beam	!	!	!
8E\L	.	.	.	.	.	8g#/L	no-	.	.
8D\	.	.	.	.	.	16aa\L	.	.	.
.	.	.	.	.	.	16ff#\JJ	.	.	.
8C#\	.	.	.	.	.	16ee\LL	.	.	.
.	.	.	.	.	.	16dd\	.	.	.
8D\J	.	.	.	.	.	16cc#\	.	.	.
.	.	.	.	.	.	16b\JJ	.	.	.
!LO:LB:g=original	!	!	!	!	!	!	!	!	!
=37	=37	=37	=37	=37	=37	=37	=37	=37	=37
*	*	*	*	*	*	*2\right	*	*	*
2E;\	.	1ryy	.	.	1ryy	2a\	.	1ryy	1ryy
!LO:TX:b:t=Da capo	!	!	!LO:TX:b:t=Da Capo	!	!	!	!	!	!
!LO:TX:a:t=P:problem:podwójna kreska taktowa	!	!	!	!	!	!	!	!	!
2EE/	.	.	.	.	.	2b;\	.	.	.
=38	=38	=38	=38	=38	=38	=38	=38	=38	=38
!	!	!LO:TX:a:t=Tacet	!	!	!	!	!	!	!
8A\Lyy	.	1ryy	[4a\yy	.	1ryy	4a\	-bis	1ryy	1ryy
8A\yy	.	.	.	.	.	.	.	.	.
8A\yy	.	.	16a\LL]yy	.	.	4r	.	.	.
.	.	.	16cc#\yy	.	.	.	.	.	.
8A\Jyy	.	.	16b\yy	.	.	.	.	.	.
.	.	.	16a\JJyy	.	.	.	.	.	.
8G#\Lyy	.	.	[4ee\yy	.	.	2r	.	.	.
8G#\yy	.	.	.	.	.	.	.	.	.
8G#\yy	.	.	16ee\LL]yy	.	.	.	.	.	.
.	.	.	16gg#\yy	.	.	.	.	.	.
8G#\Jyy	.	.	16ff#\yy	.	.	.	.	.	.
.	.	.	16ee\JJyy	.	.	.	.	.	.
=39	=39	=39	=39	=39	=39	=39	=39	=39	=39
8F#\Lyy	.	1ryy	(32aa\KLLyy	.	1ryy	00r	.	1ryy	1ryy
.	.	.	16.ff#\JJ)yy	.	.	.	.	.	.
8D\yy	.	.	(32dd\KLLyy	.	.	.	.	.	.
.	.	.	16.b\JJ)yy	.	.	.	.	.	.
.	.	.	8qqa/yy	.	.	.	.	.	.
!	!	!	!LO:TX:a:t=P:problem:mixed beam	!	!	!	!	!	!
8E\yy	.	.	8.g#/Lyy	.	.	.	.	.	.
8E\Jyy	.	.	.	.	.	.	.	.	.
.	.	.	16dd\Jkyy	.	.	.	.	.	.
!	!	!	!LO:TUP:a:problem:klamra łukowa, kropka zamiast numeru	!	!	!	!	!	!
8AA/Lyy	.	.	24cc#\LLyy	.	.	.	.	.	.
.	.	.	24b\yy	.	.	.	.	.	.
.	.	.	24a\Jyy	.	.	.	.	.	.
8AA/yy	.	.	8a\Jyy	.	.	.	.	.	.
8C#/yy	.	.	32a\LLLyy	.	.	.	.	.	.
.	.	.	32b\yy	.	.	.	.	.	.
.	.	.	32cc#\yy	.	.	.	.	.	.
.	.	.	32dd\yy	.	.	.	.	.	.
8C#/Jyy	.	.	32ee\yy	.	.	.	.	.	.
.	.	.	32ff#\yy	.	.	.	.	.	.
.	.	.	32gg#\yy	.	.	.	.	.	.
.	.	.	32aa\JJJyy	.	.	.	.	.	.
=40	=40	=40	=40	=40	=40	=40	=40	=40	=40
8D\Lyy	.	1ryy	(32ff#\KLLyy	.	1ryy	.	.	1ryy	1ryy
.	.	.	16.dd\JJ)yy	.	.	.	.	.	.
8D\yy	.	.	(32b\KLLyy	.	.	.	.	.	.
.	.	.	16.a\JJ)yy	.	.	.	.	.	.
.	.	.	8qqa/yy	.	.	.	.	.	.
!	!	!	!LO:TX:a:t=P:problem:mixed beam	!	!	!	!	!	!
8E\yy	.	.	8.g#/Lyy	.	.	.	.	.	.
8E\Jyy	.	.	.	.	.	.	.	.	.
.	.	.	16dd\Jkyy	.	.	.	.	.	.
!	!	!	!LO:TUP:a:problem:klamra łukowa, kropka zamiast numeru	!	!	!	!	!	!
8AA/Lyy	.	.	24cc#\LLyy	.	.	.	.	.	.
.	.	.	24b\yy	.	.	.	.	.	.
.	.	.	24a\Jyy	.	.	.	.	.	.
8BB/yy	.	.	8a\Jyy	.	.	.	.	.	.
8C#/yy	.	.	8ryy	.	.	.	.	.	.
8AA/Jyy	.	.	8ee\yy	.	.	.	.	.	.
=41	=41	=41	=41	=41	=41	=41	=41	=41	=41
*tremolo	*	*	*	*	*	*	*	*	*
8D\yyL	.	1ryy	(16ff#\LLyy	.	1ryy	.	.	1ryy	1ryy
.	.	.	16gg#\Jyy	.	.	.	.	.	.
8D\yy	.	.	8aa\J)yy	.	.	.	.	.	.
8D\yy	.	.	(32bb'\LLLyy	.	.	.	.	.	.
.	.	.	32aa'\yy	.	.	.	.	.	.
.	.	.	32gg#'\yy	.	.	.	.	.	.
.	.	.	32ff#'\yy	.	.	.	.	.	.
8D\yyJ	.	.	32ee'\yy	.	.	.	.	.	.
.	.	.	32dd'\yy	.	.	.	.	.	.
.	.	.	32cc#'\JJJ)yy	.	.	.	.	.	.
.	.	.	(16dd\LLyy	.	.	.	.	.	.
8D\yyL	.	.	.	.	.	.	.	.	.
.	.	.	16ee\Jyy	.	.	.	.	.	.
.	.	.	8.ff#\J)yy	.	.	.	.	.	.
8D\yy	.	.	.	.	.	.	.	.	.
8D\yy	.	.	.	.	.	.	.	.	.
.	.	.	(32ggn'\LLLyy	.	.	.	.	.	.
.	.	.	32ff#'\yy	.	.	.	.	.	.
.	.	.	32ee'\yy	.	.	.	.	.	.
8D\yyJ	.	.	32dd'\yy	.	.	.	.	.	.
.	.	.	32cc#'\yy	.	.	.	.	.	.
.	.	.	32b'\yy	.	.	.	.	.	.
.	.	.	32a'\JJJ)yy	.	.	.	.	.	.
*Xtremolo	*	*	*	*	*	*	*	*	*
=42	=42	=42	=42	=42	=42	=42	=42	=42	=42
!	!	!	!LO:TUP:a:problem:klamra łukowa, kropka zamiast numeru	!	!	!	!	!	!
8D\Lyy	.	1ryy	48cc#\LLLyy	.	1ryy	.	.	1ryy	1ryy
.	.	.	48cc#\yy	.	.	.	.	.	.
.	.	.	48dd\JJJyy	.	.	.	.	.	.
.	.	.	(32ff#'\LLLyy	.	.	.	.	.	.
.	.	.	32ee'\yy	.	.	.	.	.	.
8D\yy	.	.	32dd'\yy	.	.	.	.	.	.
.	.	.	32cc#'\yy	.	.	.	.	.	.
.	.	.	32b'\yy	.	.	.	.	.	.
.	.	.	32a'\yy	.	.	.	.	.	.
8E\yy	.	.	32g#'\yy	.	.	.	.	.	.
.	.	.	32f#'\JJJ)yy	.	.	.	.	.	.
!	!	!	!LO:TX:a:t=P:problem:mixed beam	!	!	!	!	!	!
!	!	!	!LO:N:vis=8.	!	!	!	!	!	!
.	.	.	8e/Lyy	.	.	.	.	.	.
8E\Jyy	.	.	.	.	.	.	.	.	.
.	.	.	16dd\Jkyy	.	.	.	.	.	.
!	!	!	!LO:LB:g=original	!	!	!	!	!	!
.	.	.	8qqdd/yy	.	.	.	.	.	.
8AA/Lyy	.	.	16cc#\LLyy	.	.	.	.	.	.
.	.	.	16b\Jyy	.	.	.	.	.	.
.	.	.	8qqb/yy	.	.	.	.	.	.
8BB/yy	.	.	8a\Jyy	.	.	.	.	.	.
8C#/yy	.	.	8ryy	.	.	.	.	.	.
8AA/Jyy	.	.	8ee\yy	.	.	.	.	.	.
=43	=43	=43	=43	=43	=43	=43	=43	=43	=43
8D/Lyy	.	1ryy	16.ff#\LLyy	.	1ryy	00r	.	1ryy	1ryy
.	.	.	32dd\JKyy	.	.	.	.	.	.
8BB/yy	.	.	8ddT\Jyy	.	.	.	.	.	.
!	!	!	!LO:N:vis=32.	!	!	!	!	!	!
8C#/yy	.	.	16.ee\LLyy	.	.	.	.	.	.
!	!	!	!LO:N:vis=16	!	!	!	!	!	!
.	.	.	32cc#\JKyy	.	.	.	.	.	.
8AA/Jyy	.	.	8cc#t\Jyy	.	.	.	.	.	.
!LO:TX:a:t=P:problem:mixed beam	!	!	!	!	!	!	!	!	!
8BB/Lyy	.	.	16.dd\LLyy	.	.	.	.	.	.
.	.	.	32b\JKyy	.	.	.	.	.	.
8GG#/yy	.	.	8bT\Jyy	.	.	.	.	.	.
8AA/yy	.	.	16.cc#\LLyy	.	.	.	.	.	.
.	.	.	32a\JKyy	.	.	.	.	.	.
8A\Jyy	.	.	8aT\Jyy	.	.	.	.	.	.
=44	=44	=44	=44	=44	=44	=44	=44	=44	=44
8D\Lyy	.	1ryy	16ryy	.	1ryy	.	.	1ryy	1ryy
.	.	.	16a/yy	.	.	.	.	.	.
!	!	!	!LO:TUP:a:problem:klamra łukowa, kropka zamiast numeru	!	!	!	!	!	!
8D\yy	.	.	24ff#\LLyy	.	.	.	.	.	.
.	.	.	24dd\yy	.	.	.	.	.	.
.	.	.	24b\JJyy	.	.	.	.	.	.
8D\yy	.	.	8f#/Lyy	.	.	.	.	.	.
.	.	.	8qqa/yy	.	.	.	.	.	.
8D\Jyy	.	.	8g#/Jyy	.	.	.	.	.	.
8AA/Lyy	.	.	16ryy	.	.	.	.	.	.
.	.	.	16qqb/yy	.	.	.	.	.	.
.	.	.	(16a/LLyy	.	.	.	.	.	.
8C#/yy	.	.	16g#/yy	.	.	.	.	.	.
.	.	.	16a/JJ)yy	.	.	.	.	.	.
8D/yy	.	.	16ryy	.	.	.	.	.	.
.	.	.	16qqb/yy	.	.	.	.	.	.
.	.	.	(16a/LLyy	.	.	.	.	.	.
8D/Jyy	.	.	16g#/yy	.	.	.	.	.	.
.	.	.	16a/JJ)yy	.	.	.	.	.	.
=45	=45	=45	=45	=45	=45	=45	=45	=45	=45
8C#\Lyy	.	1ryy	16ryy	.	1ryy	.	.	1ryy	1ryy
.	.	.	16a/yy	.	.	.	.	.	.
!	!	!	!LO:TUP:a:problem:klamra łukowa, kropka zamiast numeru	!	!	!	!	!	!
8D\yy	.	.	24ff#\LLyy	.	.	.	.	.	.
.	.	.	24dd\yy	.	.	.	.	.	.
.	.	.	24b\JJyy	.	.	.	.	.	.
8D\yy	.	.	8f#/Lyy	.	.	.	.	.	.
.	.	.	8qqa/yy	.	.	.	.	.	.
8E\Jyy	.	.	8g#/Jyy	.	.	.	.	.	.
8C#/Lyy	p	.	16ryy	.	.	.	.	.	.
.	.	.	16qqb/yy	p	.	.	.	.	.
.	.	.	(16a/LLyy	.	.	.	.	.	.
8C#/yy	.	.	16g#/yy	.	.	.	.	.	.
.	.	.	16a/JJ)yy	.	.	.	.	.	.
8D/yy	.	.	16ryy	.	.	.	.	.	.
.	.	.	16qqb/yy	.	.	.	.	.	.
.	.	.	(16a/LLyy	.	.	.	.	.	.
8D/Jyy	.	.	16g#/yy	.	.	.	.	.	.
.	.	.	16a/JJ)yy	.	.	.	.	.	.
!LO:LB:g=original	!	!	!	!	!	!	!	!	!
=46	=46	=46	=46	=46	=46	=46	=46	=46	=46
8C#/Lyy	.	1ryy	16ryy	.	1ryy	.	.	1ryy	1ryy
.	.	.	16a/yy	.	.	.	.	.	.
!	!	!	!LO:TUP:a:problem:klamra łukowa, kropka zamiast numeru	!	!	!	!	!	!
8D/yy	.	.	24ff#\LLyy	.	.	.	.	.	.
.	.	.	24dd\yy	.	.	.	.	.	.
.	.	.	24b\JJyy	.	.	.	.	.	.
8D/yy	.	.	8f#/Lyy	.	.	.	.	.	.
.	.	.	8qqa/yy	.	.	.	.	.	.
8E/Jyy	.	.	8g#/Jyy	.	.	.	.	.	.
!	!	!	!	!LO:DY:t=for	!	!	!	!	!
8AA/Lyy	.	.	8a/Lyy	f	.	.	.	.	.
8AA/Jyy	.	.	16e/Lyy	.	.	.	.	.	.
.	.	.	16c#/JJyy	.	.	.	.	.	.
4AA;/yy	.	.	4A;/yy	.	.	.	.	.	.
==	==	==	==	==	==	==	==	==	==
*-	*-	*-	*-	*-	*-	*-	*-	*-	*-
!!!system-decoration: [g1][g2][g3]s7
!!!RDF**dynam: p = "p:"
!!!RDF**dynam: f = "for:"
!!!AIN: 3 empty 1 tenor 2 violn 1 vox
!!!ENC: Marta Lawrence
!!!END: 2020-10-14
!!!ENC: Krzysztof Stępień
!!!END: 2020-05-21
